X: 19879
T: Jewish
R: reel
M: 4/4
K: Dmajor
|:a3f gfed|faaf gfed|cdef geag|1 fgaf gfed:|2 (3faf (3efe defg||
|:a3f gfed|faaf gfed|cdef geag|1 fgaf gfed:|2 (3faf (3efe d2ed||
|:cdef geag|fAdf gfed|cdef geag|feed =f2^f2|
ABcd efge|fAdf efge|a2a^g a=gfe|1 cdef gfed:|2 fdec d2_B2||
[F4B4][F4B4]|[F4d4][F4d4]|[F4B4f4] [F2B2f2][F2d2]|[F2B2]BA B2||

